assets/img/braze_icons/pie-chart-01.svg

<svg fill="none" height="24" viewBox="0 0 24 24" width="24" xmlns="http://www.w3.org/2000/svg"><g fill="#801ed7"><path d="m13.595 1.11485c4.7985.69697 8.5932 4.4917 9.2902 9.29025.0689.4744.1034.7116.0082.9568-.0765.1969-.2563.4048-.4402.5087-.229.1295-.5037.1295-1.0532.1295h-7.8c-.5601 0-.8401 0-1.054-.109-.1882-.0959-.3411-.2489-.437-.4371-.109-.2139-.109-.4939-.109-1.0539v-7.80004c0-.54948 0-.82422.1295-1.05325.1039-.18384.3118-.3637.5086-.44012.2453-.0952.4825-.06075.9569.00816z"/><path d="m10 3.10209c0-.63807 0-.9571-.16269-1.20628-.12908-.19766-.38777-.37717-.61811-.42892-.29035-.06522-.54966.03165-1.06827.22539-4.17682 1.56036-7.15093 5.58675-7.15093 10.30782 0 6.0751 4.92487 11 11 11 4.721 0 8.7474-2.9741 10.3078-7.1509.1937-.5187.2906-.778.2254-1.0683-.0518-.2304-.2313-.489-.429-.6181-.2491-.1627-.5682-.1627-1.2062-.1627h-7.3443c-.2382.0001-.5227.0002-.7733-.0203-.2905-.0237-.7065-.0846-1.1423-.3067-.5645-.2876-1.0235-.7466-1.3111-1.3111-.2221-.4359-.283-.8518-.3067-1.1423-.02049-.2506-.02038-.5351-.0203-.7734z"/></g></svg>

<svg width="24" height="24" viewBox="0 0 24 24" fill="none" xmlns="http://www.w3.org/2000/svg">
<path d="M13.595 1.11485C18.3935 1.81182 22.1882 5.60655 22.8852 10.4051C22.9541 10.8795 22.9886 11.1167 22.8934 11.3619C22.8169 11.5588 22.6371 11.7667 22.4532 11.8706C22.2242 12.0001 21.9495 12.0001 21.4 12.0001H13.6C13.0399 12.0001 12.7599 12.0001 12.546 11.8911C12.3578 11.7952 12.2049 11.6422 12.109 11.454C12 11.2401 12 10.9601 12 10.4001V2.60006C12 2.05058 12 1.77584 12.1295 1.54681C12.2334 1.36297 12.4413 1.18311 12.6381 1.10669C12.8834 1.01149 13.1206 1.04594 13.595 1.11485Z" fill="#801ED7"/>
<path d="M10 3.10209C10 2.46402 10 2.14499 9.83731 1.89581C9.70823 1.69815 9.44954 1.51864 9.2192 1.46689C8.92885 1.40167 8.66954 1.49854 8.15093 1.69228C3.97411 3.25264 1 7.27903 1 12.0001C1 18.0752 5.92487 23.0001 12 23.0001C16.721 23.0001 20.7474 20.026 22.3078 15.8492C22.5015 15.3305 22.5984 15.0712 22.5332 14.7809C22.4814 14.5505 22.3019 14.2919 22.1042 14.1628C21.8551 14.0001 21.536 14.0001 20.898 14.0001L13.5537 14.0001C13.3155 14.0002 13.031 14.0003 12.7804 13.9798C12.4899 13.9561 12.0739 13.8952 11.6381 13.6731C11.0736 13.3855 10.6146 12.9265 10.327 12.362C10.1049 11.9261 10.044 11.5102 10.0203 11.2197C9.99981 10.9691 9.99992 10.6846 10 10.4463L10 3.10209Z" fill="#801ED7"/>
</svg>
